Sweet-Rainbow/icons/teams-for-linux.svg

<?xml version="1.0" encoding="UTF-8" standalone="no"?>
<!-- Generator: Gravit.io -->

<svg
   xmlns:dc="http://purl.org/dc/elements/1.1/"
   xmlns:cc="http://creativecommons.org/ns#"
   xmlns:rdf="http://www.w3.org/1999/02/22-rdf-syntax-ns#"
   xmlns:svg="http://www.w3.org/2000/svg"
   xmlns="http://www.w3.org/2000/svg"
   xmlns:sodipodi="http://sodipodi.sourceforge.net/DTD/sodipodi-0.dtd"
   xmlns:inkscape="http://www.inkscape.org/namespaces/inkscape"
   style="isolation:isolate"
   viewBox="0 0 36 36"
   width="48"
   height="48"
   version="1.1"
   id="svg9"
   sodipodi:docname="teams-for-linux.svg"
   inkscape:version="0.92.4 (5da689c313, 2019-01-14)">
  <metadata
     id="metadata15">
    <rdf:RDF>
      <cc:Work
         rdf:about="">
        <dc:format>image/svg+xml</dc:format>
        <dc:type
           rdf:resource="http://purl.org/dc/dcmitype/StillImage" />
        <dc:title></dc:title>
      </cc:Work>
    </rdf:RDF>
  </metadata>
  <defs
     id="defs13" />
  <sodipodi:namedview
     pagecolor="#ffffff"
     bordercolor="#666666"
     borderopacity="1"
     objecttolerance="10"
     gridtolerance="10"
     guidetolerance="10"
     inkscape:pageopacity="0"
     inkscape:pageshadow="2"
     inkscape:window-width="640"
     inkscape:window-height="480"
     id="namedview11"
     showgrid="false"
     inkscape:zoom="29.365243"
     inkscape:cx="25.325443"
     inkscape:cy="32"
     inkscape:current-layer="svg9"
     units="px" />
  <linearGradient
     id="_lgradient_1"
     x1="0"
     y1="0.5"
     x2="1"
     y2="0.5"
     gradientTransform="matrix(44.305,0,0,44.023,1.848,1.989)"
     gradientUnits="userSpaceOnUse">
    <stop
       offset="0%"
       stop-opacity="1"
       style="stop-color:rgb(71,118,230)"
       id="stop2" />
    <stop
       offset="98.26086956521739%"
       stop-opacity="1"
       style="stop-color:rgb(142,84,233)"
       id="stop4" />
  </linearGradient>
  <g
     id="g826"
     transform="matrix(0.81256771,0,0,0.81256771,-1.501625,-1.501625)">
    <path
       id="path7"
       d="m 16.098,37.163 c -0.072,0.02 -0.148,0.03 -0.226,0.03 v 0 H 4.11 c -1.249,0 -2.262,-1.013 -2.262,-2.262 v -8.595 0 c 0,-0.499 0.405,-0.905 0.904,-0.905 v 0 c 0.5,0 0.905,0.406 0.905,0.905 v 0 0 0 7.69 c 0,0.749 0.608,1.358 1.357,1.358 h 10.858 v 0 c 0.078,0 0.154,0.01 0.226,0.03 0.071,-0.02 0.147,-0.03 0.226,-0.03 v 0 h 1.357 c 0.749,0 1.357,-0.609 1.357,-1.358 v -1.357 0 c 0,-0.499 0.406,-0.904 0.905,-0.904 v 0 c 0.499,0 0.905,0.405 0.905,0.904 v 0 2.262 c 0,1.249 -1.014,2.262 -2.262,2.262 h -2.262 v 0 c -0.079,0 -0.155,-0.01 -0.226,-0.03 z M 12.955,25.282 h 3.214 V 22.068 H 6.526 v 0 3.214 h 3.215 v 8.036 h 3.214 z M 31.337,8.039 c 0,-0.81 0.32,-1.59 0.89,-2.16 0.57,-0.57 1.35,-0.89 2.16,-0.89 0.81,0 1.58,0.32 2.15,0.89 0.57,0.57 0.89,1.35 0.89,2.16 0,0.8 -0.32,1.58 -0.89,2.15 -0.57,0.57 -1.34,0.89 -2.15,0.89 -0.81,0 -1.59,-0.32 -2.16,-0.89 -0.57,-0.57 -0.89,-1.35 -0.89,-2.15 z m -7.062,12.88 c 0,-1.24 0.49,-2.43 1.37,-3.31 0.88,-0.88 2.07,-1.37 3.31,-1.37 1.24,0 2.43,0.49 3.31,1.37 0.88,0.88 1.37,2.07 1.37,3.31 0,1.24 -0.49,2.43 -1.37,3.31 -0.88,0.88 -2.07,1.37 -3.31,1.37 -1.24,0 -2.43,-0.49 -3.31,-1.37 -0.88,-0.88 -1.37,-2.07 -1.37,-3.31 z M 6.372,20.003 v 0 c 0.499,0 0.904,-0.406 0.904,-0.905 v 0 c 0,-0.499 -0.405,-0.905 -0.904,-0.905 v 0 H 4.11 c -1.249,0 -2.262,1.014 -2.262,2.262 v 2.262 0 c 0,0.499 0.405,0.905 0.904,0.905 v 0 c 0.5,0 0.905,-0.406 0.905,-0.905 v 0 -1.357 c 0,-0.749 0.608,-1.357 1.357,-1.357 z m 12.666,8.595 v 0 c 0,0.499 0.406,0.905 0.905,0.905 v 0 c 0.499,0 0.905,-0.406 0.905,-0.905 v 0 -8.143 c 0,-1.248 -1.014,-2.262 -2.262,-2.262 h -8.143 v 0 c -0.499,0 -0.905,0.406 -0.905,0.905 v 0 c 0,0.499 0.406,0.905 0.905,0.905 v 0 h 7.238 c 0.749,0 1.357,0.608 1.357,1.357 z m 6.372,-0.867 0.788,0.557 v 0 l 15.254,10.787 c 0.328,0.232 0.594,0.746 0.594,1.147 v 2.153 c 0,0.401 -0.326,0.727 -0.728,0.727 H 16.591 c -0.401,0 -0.727,-0.326 -0.727,-0.727 v -1.829 c 0,-0.552 -0.448,-1.008 -1,-1.018 l -0.909,-0.016 c -0.552,-0.009 -1,0.431 -1,0.983 v 3.335 c 0,1.204 0.977,2.181 2.182,2.181 h 27.636 c 1.204,0 2.182,-0.977 2.182,-2.181 v -3.666 c 0,-1.204 -0.799,-2.746 -1.782,-3.441 L 31.2,28.263 c 1.192,-0.364 2.287,-1.017 3.185,-1.914 1.44,-1.44 2.25,-3.39 2.25,-5.43 0,-2.03 -0.81,-3.99 -2.25,-5.43 -1.44,-1.44 -3.39,-2.25 -5.43,-2.25 -2.04,0 -3.99,0.81 -5.43,2.25 -1.44,1.44 -2.25,3.4 -2.25,5.43 v 0 c 0,2.04 0.81,3.99 2.25,5.43 0.559,0.559 1.196,1.024 1.885,1.382 z m 11.03,-14.01 8.402,5.937 c 0.723,0.511 1.31,1.645 1.31,2.53 v 2.696 c 0,0.886 -0.719,1.605 -1.604,1.605 h -5.791 c -0.552,0 -1,-0.448 -1,-1 v -0.14 c 0,-0.552 0.448,-1 1,-1 h 4.721 c 0.295,0 0.535,-0.24 0.535,-0.535 v -1.583 c 0,-0.295 -0.196,-0.673 -0.437,-0.844 L 33.024,13.925 c -1.095,-0.251 -2.105,-0.805 -2.917,-1.616 -1.13,-1.13 -1.77,-2.67 -1.77,-4.27 v 0 c 0,-1.61 0.64,-3.15 1.77,-4.28 1.14,-1.13 2.67,-1.77 4.28,-1.77 1.6,0 3.14,0.64 4.27,1.77 1.14,1.13 1.77,2.67 1.77,4.28 0,1.6 -0.63,3.14 -1.77,4.27 -0.631,0.637 -1.391,1.115 -2.217,1.412 z"
       inkscape:connector-curvature="0"
       style="fill:url(#_lgradient_1);fill-rule:evenodd" />
  </g>
</svg>

<?xml version="1.0" encoding="UTF-8" standalone="no"?><!-- Generator: Gravit.io --><svg xmlns="http://www.w3.org/2000/svg" xmlns:xlink="http://www.w3.org/1999/xlink" style="isolation:isolate" viewBox="0 0 48 48" width="48pt" height="48pt"><linearGradient id="_lgradient_1" x1="0" y1="0.5" x2="1" y2="0.5" gradientTransform="matrix(44.305,0,0,44.023,1.848,1.989)" gradientUnits="userSpaceOnUse"><stop offset="0%" stop-opacity="1" style="stop-color:rgb(71,118,230)"/><stop offset="98.26086956521739%" stop-opacity="1" style="stop-color:rgb(142,84,233)"/></linearGradient><path d=" M 16.098 37.163 C 16.026 37.183 15.95 37.193 15.872 37.193 L 15.872 37.193 L 4.11 37.193 C 2.861 37.193 1.848 36.18 1.848 34.931 L 1.848 26.336 L 1.848 26.336 C 1.848 25.837 2.253 25.431 2.752 25.431 L 2.752 25.431 C 3.252 25.431 3.657 25.837 3.657 26.336 L 3.657 26.336 L 3.657 26.336 L 3.657 26.336 L 3.657 34.026 C 3.657 34.775 4.265 35.384 5.014 35.384 L 15.872 35.384 L 15.872 35.384 C 15.95 35.384 16.026 35.394 16.098 35.414 C 16.169 35.394 16.245 35.384 16.324 35.384 L 16.324 35.384 L 17.681 35.384 C 18.43 35.384 19.038 34.775 19.038 34.026 L 19.038 32.669 L 19.038 32.669 C 19.038 32.17 19.444 31.765 19.943 31.765 L 19.943 31.765 C 20.442 31.765 20.848 32.17 20.848 32.669 L 20.848 32.669 L 20.848 34.931 C 20.848 36.18 19.834 37.193 18.586 37.193 L 16.324 37.193 L 16.324 37.193 C 16.245 37.193 16.169 37.183 16.098 37.163 Z  M 12.955 25.282 L 16.169 25.282 L 16.169 22.068 L 6.526 22.068 L 6.526 22.068 L 6.526 25.282 L 9.741 25.282 L 9.741 33.318 L 12.955 33.318 L 12.955 25.282 L 12.955 25.282 L 12.955 25.282 L 12.955 25.282 L 12.955 25.282 Z  M 31.337 8.039 C 31.337 7.229 31.657 6.449 32.227 5.879 C 32.797 5.309 33.577 4.989 34.387 4.989 C 35.197 4.989 35.967 5.309 36.537 5.879 C 37.107 6.449 37.427 7.229 37.427 8.039 C 37.427 8.839 37.107 9.619 36.537 10.189 C 35.967 10.759 35.197 11.079 34.387 11.079 C 33.577 11.079 32.797 10.759 32.227 10.189 C 31.657 9.619 31.337 8.839 31.337 8.039 L 31.337 8.039 L 31.337 8.039 L 31.337 8.039 L 31.337 8.039 L 31.337 8.039 L 31.337 8.039 L 31.337 8.039 L 31.337 8.039 L 31.337 8.039 Z  M 24.275 20.919 C 24.275 19.679 24.765 18.489 25.645 17.609 C 26.525 16.729 27.715 16.239 28.955 16.239 C 30.195 16.239 31.385 16.729 32.265 17.609 C 33.145 18.489 33.635 19.679 33.635 20.919 C 33.635 22.159 33.145 23.349 32.265 24.229 C 31.385 25.109 30.195 25.599 28.955 25.599 C 27.715 25.599 26.525 25.109 25.645 24.229 C 24.765 23.349 24.275 22.159 24.275 20.919 L 24.275 20.919 L 24.275 20.919 L 24.275 20.919 L 24.275 20.919 L 24.275 20.919 L 24.275 20.919 L 24.275 20.919 Z  M 6.372 20.003 L 6.372 20.003 C 6.871 20.003 7.276 19.597 7.276 19.098 L 7.276 19.098 C 7.276 18.599 6.871 18.193 6.372 18.193 L 6.372 18.193 L 4.11 18.193 C 2.861 18.193 1.848 19.207 1.848 20.455 L 1.848 22.717 L 1.848 22.717 C 1.848 23.216 2.253 23.622 2.752 23.622 L 2.752 23.622 C 3.252 23.622 3.657 23.216 3.657 22.717 L 3.657 22.717 L 3.657 21.36 C 3.657 20.611 4.265 20.003 5.014 20.003 L 6.372 20.003 L 6.372 20.003 L 6.372 20.003 L 6.372 20.003 Z  M 19.038 28.598 L 19.038 28.598 C 19.038 29.097 19.444 29.503 19.943 29.503 L 19.943 29.503 C 20.442 29.503 20.848 29.097 20.848 28.598 L 20.848 28.598 L 20.848 20.455 C 20.848 19.207 19.834 18.193 18.586 18.193 L 10.443 18.193 L 10.443 18.193 C 9.944 18.193 9.538 18.599 9.538 19.098 L 9.538 19.098 C 9.538 19.597 9.944 20.003 10.443 20.003 L 10.443 20.003 L 17.681 20.003 C 18.43 20.003 19.038 20.611 19.038 21.36 L 19.038 28.598 L 19.038 28.598 Z  M 25.41 27.731 L 26.198 28.288 L 26.198 28.288 L 41.452 39.075 C 41.78 39.307 42.046 39.821 42.046 40.222 L 42.046 42.375 C 42.046 42.776 41.72 43.102 41.318 43.102 L 16.591 43.102 C 16.19 43.102 15.864 42.776 15.864 42.375 L 15.864 40.546 C 15.864 39.994 15.416 39.538 14.864 39.528 L 13.955 39.512 C 13.403 39.503 12.955 39.943 12.955 40.495 L 12.955 43.83 C 12.955 45.034 13.932 46.011 15.137 46.011 L 42.773 46.011 C 43.977 46.011 44.955 45.034 44.955 43.83 L 44.955 40.164 C 44.955 38.96 44.156 37.418 43.173 36.723 L 31.2 28.263 C 32.392 27.899 33.487 27.246 34.385 26.349 C 35.825 24.909 36.635 22.959 36.635 20.919 C 36.635 18.889 35.825 16.929 34.385 15.489 C 32.945 14.049 30.995 13.239 28.955 13.239 C 26.915 13.239 24.965 14.049 23.525 15.489 C 22.085 16.929 21.275 18.889 21.275 20.919 L 21.275 20.919 C 21.275 22.959 22.085 24.909 23.525 26.349 C 24.084 26.908 24.721 27.373 25.41 27.731 L 25.41 27.731 L 25.41 27.731 L 25.41 27.731 L 25.41 27.731 L 25.41 27.731 L 25.41 27.731 Z  M 36.44 13.721 L 44.842 19.658 C 45.565 20.169 46.152 21.303 46.152 22.188 L 46.152 24.884 C 46.152 25.77 45.433 26.489 44.548 26.489 L 38.757 26.489 C 38.205 26.489 37.757 26.041 37.757 25.489 L 37.757 25.349 C 37.757 24.797 38.205 24.349 38.757 24.349 L 43.478 24.349 C 43.773 24.349 44.013 24.109 44.013 23.814 L 44.013 22.231 C 44.013 21.936 43.817 21.558 43.576 21.387 L 33.024 13.925 C 31.929 13.674 30.919 13.12 30.107 12.309 C 28.977 11.179 28.337 9.639 28.337 8.039 L 28.337 8.039 C 28.337 6.429 28.977 4.889 30.107 3.759 C 31.247 2.629 32.777 1.989 34.387 1.989 C 35.987 1.989 37.527 2.629 38.657 3.759 C 39.797 4.889 40.427 6.429 40.427 8.039 C 40.427 9.639 39.797 11.179 38.657 12.309 C 38.026 12.946 37.266 13.424 36.44 13.721 L 36.44 13.721 L 36.44 13.721 L 36.44 13.721 L 36.44 13.721 L 36.44 13.721 L 36.44 13.721 L 36.44 13.721 L 36.44 13.721 Z " fill-rule="evenodd" fill="url(#_lgradient_1)"/></svg>
